X: 885
T: Shenandoah Falls
B: jims roots
M:4/4
L:1/8
R: reel
Q: 1/4=100
K:A
V:1 
%S:Bernie Waugh
%S:Printed page from Debby Knight
cd | "A"e2ef edcB | AB (3cBA "D"d2Bd | "A"c2cA "(F#m)"B2{cB}Ac| "Bm"BAGF "E"E2cd |
"A"e2ef edcB | AB (3cBA "D"d2Bd| "A"cBAc "E7"BAG2 |[1 "A"A6:|2 "A"A8||
|: "Bm"F4 B4 | F2AB- BAF2 | "A"A2cA BcAB| cABc- cBA2 |
"Bm"F4 B4 | F2AB- Bfed | "A"cdec "E"BAG2 | "A"A4 A2:|
% abcbook-tune_id 6298c28721c6bb30566d8abb


% abcbook-boost 0
% abcbook-tablature 
% abcbook-transpose 
% abcbook-lastupdated 1654178440336
% abcbook-soundfonts 
% abcbook-repeats 1


